assets/crypto-lib-logo.svg

<svg height="640" viewBox="0 0 1280 640" width="1280" xmlns="http://www.w3.org/2000/svg" xmlns:xlink="http://www.w3.org/1999/xlink"><linearGradient id="a" x1="50%" x2="50%" y1="23.090894%" y2="94.501%"><stop offset="0" stop-color="#ea38ff"/><stop offset="1" stop-color="#7d2cfe"/></linearGradient><g fill="none" fill-rule="evenodd"><path d="m0 0h1280v640h-1280z"/><g fill="url(#a)" fill-rule="nonzero" transform="translate(44 199)"><path d="m28.382 88.858v13.35c0 14.184 11.269 25.448 25.46 25.448h23.373v-12.933h-23.373c-7.096 0-12.521-5.84-12.521-12.515v-13.767c6.26-2.503 10.434-8.76 10.434-15.435 0-9.178-7.513-17.104-17.112-17.104-9.183 0-17.113 7.509-17.113 17.104 0 7.509 4.174 13.767 10.852 15.852"/><path d="m53.842 206.919h23.373v-12.932h-23.373c-14.191 0-25.46 11.263-25.46 25.447v10.43c-6.261 2.502-10.852 8.76-10.852 15.852 0 9.178 7.513 17.104 17.113 17.104 9.182 0 17.112-7.509 17.112-17.104 0-7.092-4.174-12.932-10.434-15.435v-10.43c-.418-7.091 5.425-12.932 12.521-12.932"/><path d="m17.53 178.134c7.095 0 13.356-4.172 15.86-10.43h43.825v-12.932h-44.242c-2.504-6.258-8.765-10.43-15.86-10.43-9.183.001-17.113 7.511-17.113 17.106.4230796 9.363225 8.15730089 16.725515 17.53 16.687299"/><path d="m348.095 102.625v-13.35c6.26-2.502 10.852-8.76 10.852-15.852 0-9.178-7.513-17.104-17.113-17.104-9.182 0-17.112 7.509-17.112 17.104 0 7.092 4.173 12.932 10.434 15.435v13.767c0 7.092-5.843 12.515-12.521 12.515h-23.373v12.933h23.373c14.19 0 25.46-11.681 25.46-25.448"/><path d="m335.573 219.851v10.43c-6.26 2.503-10.434 8.76-10.434 15.435 0 9.178 7.513 17.104 17.113 17.104 9.182 0 17.112-7.509 17.112-17.104 0-7.092-4.591-13.35-10.851-15.852v-10.43c0-14.184-11.27-25.447-25.461-25.447h-23.373v12.932h23.373c6.678 0 12.521 5.84 12.521 12.932"/><path d="m358.947 144.342708c-7.095 0-13.356 4.171292-15.86 10.430292h-43.408v12.931h43.825c2.504 6.258 8.765 10.43 15.86 10.43 9.183 0 17.113-7.51 17.113-17.105-.424104-9.362601-8.157876-16.724022-17.53-16.686292"/><path d="m108.519 239.876h159.44c9.599 0 17.111-7.51 17.111-17.104v-110.552c0-9.595-7.512-17.104-17.112-17.104h-15.443v-30.87c0-35.46-28.8-64.246-64.277-64.246s-64.276 28.785-64.276 64.245v30.871h-15.443c-9.6 0-17.113 7.509-17.113 17.104v110.552c0 9.594 7.513 17.104 17.113 17.104zm96.832-39.215c.835 2.503-1.252 5.424-4.174 5.424h-25.46c-2.921 0-4.591-2.504-4.174-5.424l6.26-24.613c-4.173-3.338-6.677-8.344-6.677-13.767 0-9.595 7.93-17.521 17.53-17.521s17.53 7.926 17.53 17.521c0 5.84-2.505 10.846-6.678 13.767zm-56.764-136.416c0-22.11 17.948-39.632 39.651-39.632 22.122 0 39.651 17.939 39.651 39.632v30.871h-79.302v-30.87z"/><text font-family="CircularStd-Medium, Circular Std" font-size="104" font-weight="400" transform="translate(434 97)"><tspan x="0" y="104">CRYPTO LIB</tspan></text></g></g></svg>

<?xml version="1.0" encoding="UTF-8"?>
<svg width="1280px" height="640px" viewBox="0 0 1280 640" version="1.1" xmlns="http://www.w3.org/2000/svg" xmlns:xlink="http://www.w3.org/1999/xlink">
    <title>crypto-lib-logo</title>
    <defs>
        <linearGradient x1="50%" y1="23.0908939%" x2="50%" y2="94.501%" id="linearGradient-1">
            <stop stop-color="#EA38FF" offset="0%"></stop>
            <stop stop-color="#7D2CFE" offset="100%"></stop>
        </linearGradient>
        <linearGradient x1="50%" y1="23.0908939%" x2="50%" y2="94.501%" id="linearGradient-2">
            <stop stop-color="#EA38FF" offset="0%"></stop>
            <stop stop-color="#7D2CFE" offset="100%"></stop>
        </linearGradient>
        <linearGradient x1="50%" y1="23.0908939%" x2="50%" y2="94.501%" id="linearGradient-3">
            <stop stop-color="#EA38FF" offset="0%"></stop>
            <stop stop-color="#7D2CFE" offset="100%"></stop>
        </linearGradient>
        <linearGradient x1="50%" y1="23.0908939%" x2="50%" y2="94.501%" id="linearGradient-4">
            <stop stop-color="#EA38FF" offset="0%"></stop>
            <stop stop-color="#7D2CFE" offset="100%"></stop>
        </linearGradient>
        <linearGradient x1="50%" y1="23.0908939%" x2="50%" y2="94.501%" id="linearGradient-5">
            <stop stop-color="#EA38FF" offset="0%"></stop>
            <stop stop-color="#7D2CFE" offset="100%"></stop>
        </linearGradient>
        <linearGradient x1="50%" y1="23.0908939%" x2="50%" y2="94.501%" id="linearGradient-6">
            <stop stop-color="#EA38FF" offset="0%"></stop>
            <stop stop-color="#7D2CFE" offset="100%"></stop>
        </linearGradient>
    </defs>
    <g id="Page-1" stroke="none" stroke-width="1" fill="none" fill-rule="evenodd">
        <g id="crypto-lib-logo">
            <polygon id="Path" points="0 0 1280 0 1280 640 0 640"></polygon>
            <g id="Group" transform="translate(44.000000, 199.000000)" fill-rule="nonzero">
                <g>
                    <path d="M28.382,88.858 L28.382,102.208 C28.382,116.392 39.651,127.656 53.842,127.656 L77.215,127.656 L77.215,114.723 L53.842,114.723 C46.746,114.723 41.321,108.883 41.321,102.208 L41.321,88.441 C47.581,85.938 51.755,79.681 51.755,73.006 C51.755,63.828 44.242,55.902 34.643,55.902 C25.46,55.902 17.53,63.411 17.53,73.006 C17.53,80.515 21.704,86.773 28.382,88.858" id="Path" fill="url(#linearGradient-1)"></path>
                    <path d="M53.842,206.919 L77.215,206.919 L77.215,193.987 L53.842,193.987 C39.651,193.987 28.382,205.25 28.382,219.434 L28.382,229.864 C22.121,232.366 17.53,238.624 17.53,245.716 C17.53,254.894 25.043,262.82 34.643,262.82 C43.825,262.82 51.755,255.311 51.755,245.716 C51.755,238.624 47.581,232.784 41.321,230.281 L41.321,219.851 C40.903,212.76 46.746,206.919 53.842,206.919" id="Path" fill="url(#linearGradient-2)"></path>
                    <path d="M17.53,178.134 C24.625,178.134 30.886,173.962 33.39,167.704 L77.215,167.704 L77.215,154.772 L32.973,154.772 C30.469,148.514 24.208,144.342 17.113,144.342 C7.93,144.343 7.10542736e-15,151.853 7.10542736e-15,161.448 C0.4230796,170.811225 8.15730089,178.173515 17.53,178.135299" id="Path" fill="url(#linearGradient-3)"></path>
                    <path d="M348.095,102.625 L348.095,89.275 C354.355,86.773 358.947,80.515 358.947,73.423 C358.947,64.245 351.434,56.319 341.834,56.319 C332.652,56.319 324.722,63.828 324.722,73.423 C324.722,80.515 328.895,86.355 335.156,88.858 L335.156,102.625 C335.156,109.717 329.313,115.14 322.635,115.14 L299.262,115.14 L299.262,128.073 L322.635,128.073 C336.825,128.073 348.095,116.392 348.095,102.625" id="Path" fill="url(#linearGradient-1)"></path>
                    <path d="M335.573,219.851 L335.573,230.281 C329.313,232.784 325.139,239.041 325.139,245.716 C325.139,254.894 332.652,262.82 342.252,262.82 C351.434,262.82 359.364,255.311 359.364,245.716 C359.364,238.624 354.773,232.366 348.513,229.864 L348.513,219.434 C348.513,205.25 337.243,193.987 323.052,193.987 L299.679,193.987 L299.679,206.919 L323.052,206.919 C329.73,206.919 335.573,212.759 335.573,219.851" id="Path" fill="url(#linearGradient-2)"></path>
                    <path d="M358.947,144.342708 C351.852,144.342708 345.591,148.514 343.087,154.773 L299.679,154.773 L299.679,167.704 L343.504,167.704 C346.008,173.962 352.269,178.134 359.364,178.134 C368.547,178.134 376.477,170.624 376.477,161.029 C376.052896,151.666399 368.319124,144.304978 358.947,144.342708" id="Path" fill="url(#linearGradient-4)"></path>
                    <path d="M108.519,239.876 L267.959,239.876 C277.558,239.876 285.07,232.366 285.07,222.772 L285.07,112.22 C285.07,102.625 277.558,95.116 267.958,95.116 L252.515,95.116 L252.515,64.246 C252.515,28.786 223.715,-1.42108547e-14 188.238,-1.42108547e-14 C152.761,-1.42108547e-14 123.962,28.785 123.962,64.245 L123.962,95.116 L108.519,95.116 C98.919,95.116 91.406,102.625 91.406,112.22 L91.406,222.772 C91.406,232.366 98.919,239.876 108.519,239.876 L108.519,239.876 Z M205.351,200.661 C206.186,203.164 204.099,206.085 201.177,206.085 L175.717,206.085 C172.796,206.085 171.126,203.581 171.543,200.661 L177.803,176.048 C173.63,172.71 171.126,167.704 171.126,162.281 C171.126,152.686 179.056,144.76 188.656,144.76 C198.256,144.76 206.186,152.686 206.186,162.281 C206.186,168.121 203.681,173.127 199.508,176.048 L205.351,200.661 Z M148.587,64.245 C148.587,42.135 166.535,24.613 188.238,24.613 C210.36,24.613 227.889,42.552 227.889,64.245 L227.889,95.116 L148.587,95.116 L148.587,64.246 L148.587,64.245 Z" id="Shape" fill="url(#linearGradient-5)"></path>
                </g>
                <g id="CRYPTO-LIB" transform="translate(434.000000, 97.000000)" fill="url(#linearGradient-6)" font-family="CircularStd-Medium, Circular Std" font-size="104" font-weight="400">
                    <text>
                        <tspan x="0" y="104">CRYPTO LIB</tspan>
                    </text>
                </g>
            </g>
        </g>
    </g>
</svg>
